dist/svg/block.svg

<!-- Generated by Trend Micro Style Portal -->
<svg version="1.1" xmlns="http://www.w3.org/2000/svg" width="16" height="16" viewBox="0 0 16 16">
  <title>block</title>
  <path fill="rgb(34,34,34)" d="M8 0c-4.418 0-8 3.582-8 8s3.582 8 8 8c4.418 0 8-3.582 8-8v0c0-4.418-3.582-8-8-8v0zM1.5 8c0-0.002 0-0.004 0-0.006 0-1.528 0.53-2.933 1.416-4.039l-0.010 0.013 9.127 9.127c-1.098 0.876-2.505 1.406-4.037 1.406-3.588 0-6.497-2.909-6.497-6.496 0-0.001 0-0.002 0-0.004v0zM13.094 12.033l-9.127-9.127c1.098-0.876 2.505-1.406 4.037-1.406 3.588 0 6.497 2.909 6.497 6.497 0 1.531-0.53 2.939-1.416 4.050l0.010-0.013z"></path>
</svg>

<svg width="16" height="16" viewBox="0 0 16 16" fill="rgb(34, 34, 34)" xmlns="http://www.w3.org/2000/svg"><title>block</title><path d="M8 0C3.582 0 0 3.582 0 8C0 12.418 3.582 16 8 16C12.418 16 16 12.418 16 8C16 3.582 12.418 0 8 0ZM1.5 8C1.5 7.998 1.5 7.996 1.5 7.994C1.5 6.466 2.03 5.061 2.916 3.955L2.906 3.968L12.033 13.095C10.935 13.971 9.528 14.501 7.996 14.501C4.408 14.501 1.499 11.592 1.499 8.005C1.499 8.005 1.499 8.003 1.499 8.001L1.5 8ZM13.094 12.033L3.967 2.906C5.065 2.03 6.472 1.5 8.004 1.5C11.592 1.5 14.501 4.409 14.501 7.997C14.501 9.528 13.971 10.936 13.085 12.047L13.095 12.034L13.094 12.033Z" fill="rgb(34, 34, 34)" fill-opacity="1.00"/></svg>
